dist/img/svg/ic_step2.svg

<svg width="64" height="64" viewBox="0 0 64 64" fill="none" xmlns="http://www.w3.org/2000/svg">
<path d="M22.8653 33.0886C17.8972 33.0886 13.8553 37.1306 13.8553 42.0986C13.8553 47.0667 17.8972 51.1085 22.8653 51.1085C27.8333 51.1085 31.8753 47.0667 31.8753 42.0986C31.8753 40.2932 31.3429 38.551 30.336 37.0604C30.0742 36.673 29.5479 36.571 29.1603 36.8327C28.7728 37.0947 28.6708 37.621 28.9327 38.0085C29.7499 39.2181 30.1818 40.6322 30.1818 42.0986C30.1818 46.1329 26.8997 49.415 22.8654 49.415C18.831 49.415 15.549 46.1329 15.549 42.0986C15.549 38.0644 18.831 34.7822 22.8654 34.7822C23.333 34.7822 23.7122 34.4031 23.7122 33.9356C23.712 33.4677 23.3329 33.0886 22.8653 33.0886Z" fill="black"/>
<path d="M38.5188 50.1329L36.3044 47.9183C36.1054 47.7193 36.0511 47.4119 36.1605 47.1488C36.1628 47.1439 36.1731 47.1195 36.175 47.1146C36.2893 46.8389 36.5445 46.6607 36.8254 46.6607H39.9571C40.4246 46.6607 40.8039 46.2815 40.8039 45.8139V37.4159C40.8039 36.9483 40.4246 36.5692 39.9571 36.5692H36.8254C36.5445 36.5692 36.2893 36.3909 36.1663 36.0944C36.0511 35.8178 36.1055 35.5104 36.3044 35.3112L38.5188 33.0968C38.8495 32.7661 38.8495 32.23 38.5188 31.8993L32.5806 25.9611C32.2499 25.6305 31.7138 25.6305 31.383 25.9611C31.0523 26.2919 31.0523 26.828 31.383 27.1588L36.7226 32.4981L35.107 34.1136C34.4211 34.7994 34.2231 35.8322 34.6104 36.763C34.9875 37.6739 35.8569 38.2627 36.8254 38.2627H39.1103V44.967H36.8254C35.8569 44.967 34.9875 45.5558 34.6165 46.452C34.6146 46.4564 34.6044 46.4805 34.6026 46.485C34.2229 47.3974 34.4209 48.4304 35.107 49.1159L36.7226 50.7316L31.9819 55.4724L30.3663 53.8566C29.6803 53.1706 28.6474 52.9728 27.717 53.36C26.806 53.7373 26.2173 54.6069 26.2173 55.5752V57.86H19.513V55.575C19.513 54.6067 18.9244 53.7372 17.995 53.3524C17.0826 52.9729 16.05 53.1708 15.364 53.8565L13.7484 55.4723L9.00776 50.7315L10.6234 49.1158C11.3091 48.4298 11.5071 47.397 11.12 46.4667C10.7426 45.5558 9.87313 44.967 8.90501 44.967H6.62026V38.2627H8.90513C9.87338 38.2627 10.7429 37.6739 11.1278 36.7446C11.5071 35.8323 11.3093 34.7995 10.6235 34.1135L9.00788 32.498L13.7485 27.7574L15.3641 29.3729C16.0499 30.0589 17.0825 30.2569 18.0134 29.8696C18.9244 29.4923 19.513 28.6228 19.513 27.6546V25.3698H26.2173V27.6546C26.2173 28.623 26.806 29.4925 27.717 29.8696C28.0223 29.9962 28.3275 30.1369 28.6239 30.2879C29.0401 30.5 29.5503 30.3345 29.7628 29.9178C29.975 29.5011 29.8094 28.9913 29.3926 28.7789C29.0569 28.6078 28.7111 28.4484 28.3649 28.3049C28.089 28.1906 27.9108 27.9354 27.9108 27.6545V24.5228C27.9108 24.055 27.5316 23.676 27.064 23.676H18.6663C18.1986 23.676 17.8195 24.055 17.8195 24.5228V27.6545C17.8195 27.9354 17.6413 28.1906 17.3446 28.3135C17.0683 28.4288 16.7608 28.3745 16.5618 28.1754L14.3474 25.961C14.0166 25.6304 13.4804 25.6304 13.1498 25.961L7.21151 31.8991C6.88076 32.2299 6.88076 32.7661 7.21151 33.0969L9.42588 35.311C9.62501 35.5103 9.67913 35.8176 9.56688 36.0876C9.56576 36.0903 9.55663 36.1123 9.55538 36.1149C9.44113 36.3908 9.18588 36.569 8.90513 36.569H5.77351C5.30588 36.569 4.92676 36.9481 4.92676 37.4158V45.8138C4.92676 46.2814 5.30588 46.6605 5.77351 46.6605H8.90526C9.18601 46.6605 9.44126 46.8388 9.56426 47.1353C9.67926 47.4119 9.62501 47.7193 9.42601 47.9183L7.21163 50.1327C6.88088 50.4634 6.88088 50.9997 7.21163 51.3304L13.1499 57.2685C13.4806 57.5991 14.0168 57.5991 14.3475 57.2685L16.5619 55.054C16.7609 54.8548 17.0683 54.8011 17.3383 54.9131C17.3409 54.9143 17.3629 54.9234 17.3655 54.9247C17.6414 55.0389 17.8196 55.2942 17.8196 55.575V58.7066C17.8196 59.1744 18.1988 59.5534 18.6664 59.5534H27.0643C27.5319 59.5534 27.911 59.1744 27.911 58.7066V55.575C27.911 55.294 28.0893 55.0388 28.3556 54.9283C28.3593 54.9268 28.3825 54.9173 28.386 54.9158C28.6625 54.8006 28.97 54.8552 29.1689 55.0539L31.3833 57.2683C31.5421 57.4271 31.7575 57.5163 31.9821 57.5163C32.2066 57.5163 32.422 57.4272 32.5809 57.2684L38.519 51.3303C38.8495 50.9995 38.8495 50.4634 38.5188 50.1329Z" fill="black"/>
<path d="M47.2408 39.0632C47.2408 42.0695 49.6865 44.5153 52.693 44.5153C55.6995 44.5153 58.1453 42.0695 58.1453 39.0632C58.1453 36.0568 55.6995 33.6108 52.693 33.6108C49.6865 33.6108 47.2408 36.0568 47.2408 39.0632ZM56.4517 39.0632C56.4517 41.1357 54.7655 42.8218 52.693 42.8218C50.6205 42.8218 48.9343 41.1357 48.9343 39.0632C48.9343 36.9905 50.6205 35.3045 52.693 35.3045C54.7655 35.3045 56.4517 36.9905 56.4517 39.0632Z" fill="black"/>
<path d="M58.2266 55.473C58.6941 55.473 59.0734 55.094 59.0734 54.6264V52.5055C59.0734 48.9874 56.2112 46.1252 52.693 46.1252C49.1747 46.1252 46.3126 48.9874 46.3126 52.5055V57.958H36.0036C35.5361 57.958 35.1569 58.337 35.1569 58.8047C35.1569 59.2724 35.5361 59.6514 36.0036 59.6514H47.1184C47.1322 59.6521 47.1454 59.6555 47.1594 59.6555H58.2265C58.694 59.6555 59.0732 59.2764 59.0732 58.8089C59.0732 58.3411 58.694 57.962 58.2265 57.962H48.0062V52.5055C48.0062 49.9212 50.1087 47.8187 52.693 47.8187C55.2772 47.8187 57.3797 49.9212 57.3797 52.5055V54.6264C57.3797 55.094 57.759 55.473 58.2266 55.473Z" fill="black"/>
<path d="M11.7011 23.1464C12.1687 23.1464 12.5479 22.7673 12.5479 22.2997V8.06118H18.1646C18.6322 8.06118 19.0114 7.68218 19.0114 7.21443C19.0114 6.7468 18.6322 6.36768 18.1646 6.36768H11.7011C11.2335 6.36768 10.8544 6.7468 10.8544 7.21443V22.2997C10.8544 22.7674 11.2335 23.1464 11.7011 23.1464Z" fill="black"/>
<path d="M46.9304 8.06118H52.672V28.5533C52.672 29.0211 53.0511 29.4001 53.5187 29.4001C53.9862 29.4001 54.3654 29.0209 54.3654 28.5533V7.21443C54.3654 6.7468 53.9862 6.36768 53.5187 6.36768H46.9304C46.4629 6.36768 46.0837 6.7468 46.0837 7.21443C46.0837 7.68218 46.4629 8.06118 46.9304 8.06118Z" fill="black"/>
<path d="M23.1723 11.7081H42.0479C42.5154 11.7081 42.8945 11.329 42.8945 10.8614V5.19099C42.8945 4.72336 42.5154 4.34424 42.0479 4.34424H23.1723C22.7046 4.34424 22.3255 4.72336 22.3255 5.19099V10.8614C22.3255 11.329 22.7046 11.7081 23.1723 11.7081ZM24.019 6.03774H41.201V10.0145H24.019V6.03774Z" fill="black"/>
<path d="M22.8652 36.6206C22.3975 36.6206 22.0185 36.9997 22.0185 37.4674V42.0987C22.0185 42.5664 22.3975 42.9454 22.8652 42.9454H25.9545C26.4221 42.9454 26.8012 42.5664 26.8012 42.0987C26.8012 41.631 26.4221 41.2519 25.9545 41.2519H23.7121V37.4675C23.712 36.9997 23.3329 36.6206 22.8652 36.6206Z" fill="black"/>
<path d="M21.0815 18.3722H40.199C40.6665 18.3722 41.0456 17.9932 41.0456 17.5255C41.0456 17.0578 40.6665 16.6787 40.199 16.6787H21.0815C20.6137 16.6787 20.2347 17.0578 20.2347 17.5255C20.2347 17.9931 20.6137 18.3722 21.0815 18.3722Z" fill="#008FD6"/>
<path d="M40.1991 23.5127H36.3161C35.8486 23.5127 35.4694 23.8918 35.4694 24.3594C35.4694 24.8271 35.8486 25.2062 36.3161 25.2062H40.1991C40.6666 25.2062 41.0457 24.8271 41.0457 24.3594C41.0457 23.8918 40.6666 23.5127 40.1991 23.5127Z" fill="#008FD6"/>
<path d="M45.2915 19.3234C45.4569 19.4887 45.6736 19.5713 45.8901 19.5713C46.1069 19.5713 46.3238 19.4885 46.4889 19.3233L48.8876 16.9244C49.2184 16.5938 49.2184 16.0577 48.8876 15.7269C48.5569 15.3964 48.0205 15.3963 47.6903 15.727L45.8901 17.5272L45.1769 16.814C44.8461 16.4834 44.3098 16.4833 43.9795 16.8142C43.6488 17.1448 43.6488 17.681 43.9795 18.0117L45.2915 19.3234Z" fill="#008FD6"/>
<path d="M45.2915 26.1576C45.4569 26.3229 45.6736 26.4056 45.8901 26.4056C46.1069 26.4056 46.3238 26.3229 46.4889 26.1575L48.8876 23.7586C49.2184 23.428 49.2184 22.8919 48.8876 22.5611C48.5569 22.2306 48.0205 22.2305 47.6903 22.5613L45.8901 24.3614L45.1769 23.6483C44.8461 23.3176 44.3098 23.3175 43.9795 23.6483C43.6488 23.9789 43.6488 24.5151 43.9795 24.8458L45.2915 26.1576Z" fill="#008FD6"/>
</svg>

<svg width="64" height="64" viewBox="0 0 64 64" fill="none" xmlns="http://www.w3.org/2000/svg"><path d="M22.865 33.089c-4.968 0-9.01 4.042-9.01 9.01s4.042 9.01 9.01 9.01 9.01-4.042 9.01-9.01a8.967 8.967 0 00-1.539-5.039.847.847 0 00-1.403.948 7.278 7.278 0 011.249 4.09c0 4.035-3.282 7.317-7.317 7.317-4.034 0-7.316-3.282-7.316-7.316 0-4.035 3.282-7.317 7.316-7.317a.847.847 0 100-1.693z" fill="#000"/><path d="M38.519 50.133l-2.215-2.215a.708.708 0 01-.129-.803.712.712 0 01.65-.454h3.132c.468 0 .847-.38.847-.847v-8.398a.847.847 0 00-.847-.847h-3.132c-.28 0-.536-.178-.659-.475a.713.713 0 01.138-.783l2.215-2.214a.847.847 0 000-1.198l-5.938-5.938a.847.847 0 00-1.198 1.198l5.34 5.34-1.616 1.615c-.686.685-.884 1.718-.497 2.649a2.4 2.4 0 002.215 1.5h2.285v6.704h-2.285a2.394 2.394 0 00-2.222 1.518 2.4 2.4 0 00.504 2.63l1.616 1.617-4.741 4.74-1.616-1.615c-.686-.686-1.719-.884-2.649-.497a2.4 2.4 0 00-1.5 2.215v2.285h-6.704v-2.285c0-.968-.589-1.838-1.518-2.223a2.401 2.401 0 00-2.631.505l-1.616 1.615-4.74-4.74 1.615-1.616c.686-.686.884-1.719.497-2.65a2.4 2.4 0 00-2.215-1.499H6.62v-6.704h2.285c.968 0 1.838-.59 2.223-1.518a2.402 2.402 0 00-.505-2.631l-1.615-1.616 4.74-4.74 1.616 1.615c.686.686 1.718.884 2.65.497a2.4 2.4 0 001.499-2.215V25.37h6.704v2.285a2.4 2.4 0 001.5 2.215c.305.126.61.267.907.418a.847.847 0 00.769-1.51c-.336-.17-.682-.33-1.028-.473a.712.712 0 01-.454-.65v-3.132a.847.847 0 00-.847-.847h-8.398a.847.847 0 00-.846.847v3.131c0 .281-.179.537-.475.66a.712.712 0 01-.783-.139l-2.215-2.214a.847.847 0 00-1.197 0l-5.938 5.938a.847.847 0 000 1.198l2.214 2.214a.71.71 0 01.13.804.712.712 0 01-.65.454H5.773a.847.847 0 00-.847.847v8.398c0 .467.379.846.847.846h3.131c.281 0 .536.179.66.475a.713.713 0 01-.139.783l-2.214 2.215a.847.847 0 000 1.197l5.938 5.939c.33.33.867.33 1.197 0l2.215-2.215a.71.71 0 01.776-.14c.003 0 .025.01.027.01.276.115.455.37.455.651v3.132c0 .467.379.846.846.846h8.398a.847.847 0 00.847-.846v-3.132a.709.709 0 01.475-.66.713.713 0 01.783.139l2.214 2.214a.847.847 0 001.198 0l5.938-5.938a.847.847 0 000-1.197zm8.721-11.07a5.458 5.458 0 005.453 5.452 5.458 5.458 0 005.452-5.452 5.459 5.459 0 00-5.452-5.452 5.458 5.458 0 00-5.452 5.452zm9.212 0a3.763 3.763 0 01-3.759 3.759 3.763 3.763 0 01-3.759-3.759 3.763 3.763 0 013.759-3.759 3.763 3.763 0 013.759 3.76zm1.775 16.41a.847.847 0 00.846-.847v-2.12a6.388 6.388 0 00-6.38-6.38 6.387 6.387 0 00-6.38 6.38v5.452h-10.31a.847.847 0 000 1.693h11.115c.014.001.027.005.041.005h11.068a.847.847 0 000-1.694h-10.22v-5.457a4.692 4.692 0 014.686-4.686 4.692 4.692 0 014.687 4.686v2.121c0 .468.379.847.847.847zM11.701 23.146a.847.847 0 00.847-.846V8.06h5.617a.847.847 0 100-1.693H11.7a.847.847 0 00-.847.846V22.3c0 .467.38.846.847.846zM46.93 8.061h5.742v20.492a.847.847 0 101.693 0V7.214a.847.847 0 00-.846-.846H46.93a.847.847 0 000 1.693zm-23.758 3.647h18.876a.847.847 0 00.846-.847v-5.67a.847.847 0 00-.846-.847H23.172a.847.847 0 00-.846.847v5.67c0 .468.379.847.846.847zm.847-5.67h17.182v3.976H24.019V6.038z" fill="#000"/><path d="M22.865 36.62a.847.847 0 00-.846.847V42.1c0 .467.379.846.846.846h3.09a.847.847 0 100-1.693h-2.243v-3.785a.847.847 0 00-.847-.846z" fill="#000"/><path d="M21.081 18.372H40.2a.847.847 0 000-1.693H21.082a.847.847 0 100 1.693zM40.2 23.513h-3.884a.847.847 0 000 1.693H40.2a.847.847 0 000-1.693zm5.091-4.19a.844.844 0 001.198 0l2.399-2.399a.847.847 0 10-1.198-1.197l-1.8 1.8-.713-.713a.847.847 0 10-1.197 1.198l1.312 1.311zm0 6.835a.844.844 0 001.198 0l2.399-2.4a.847.847 0 10-1.198-1.197l-1.8 1.8-.713-.713a.847.847 0 10-1.197 1.198l1.312 1.312z" fill="#008FD6"/></svg>
